X: 100
T: Tibi Christe
N: Derived from Mar2096-Tibi_Christe.krn
C: Johannes Martini
%%abc-version 2.0
%%abcx-abcm2ps-target-version 5.9.1 (29 Sep 2008)
%%abc-creator hum2abc beta
%%abcx-conversion-date 2019/02/17 07:19:43
%%abc-edited-by Jesse Rodin
%%abc-edited-by Chris Gage 08-19-2014
%%abcx-initial-encoding-date 2014/10/05/
%%humdrum-veritas 2974425923
%%humdrum-veritas-data 1639306465
%%linebreak <none>
%%barnumbers 0
L: 1/4
M: 3/1
Q: 1/2=120
%%staves [1 2 3 4]
V: 1 clef=treble
V: 2 clef=treble-8
V: 3 clef=treble-8
V: 4 clef=bass
K: C
[V:1] z12 | 
[V:2] z12 | 
[V:3] z12 | 
[V:4] E,8D,4 | 
[V:1] z12 | 
[V:2] E8D4 | 
[V:3] z12 | 
[V:4] G,8A,4 | 
[V:1] E8D4 | 
[V:2] G8A4 | 
[V:3] z12 | 
[V:4] B,2E,3F,G,A,F,4 | 
[V:1] G8A4 | 
[V:2] B3AB2c2d4 | 
[V:3] E8D4 | 
[V:4] E,4z4z4 | 
[V:1] B3AB2c2A4 | 
[V:2] B6e4d2 | 
[V:3] G8A4 | 
[V:4] E,8F,4 | 
[V:1] G6FED4 | 
[V:2] e6dcB2G2- | 
[V:3] B8B4 | 
[V:4] E,6D,2G,4 | 
[V:1] G4F2A4GF | 
[V:2] GFG2A8 | 
[V:3] c4d8 | 
[V:4] E,4D,8 | 
[V:1] E3FG2A4^G2 | 
[V:2] z2e4d2e4 | 
[V:3] c4B2A2B4 | 
[V:4] A,4G,2F,2E,4 | 
[V:1] A4c6BA | 
[V:2] c2f4e2c2d2 | 
[V:3] A12 | 
[V:4] F,4A,8 | 
[V:1] G4A6G2 | 
[V:2] e4f4e2d2- | 
[V:3] c8B4 | 
[V:4] C,4F,4G,4 | 
[V:1] G6^FEF4 | 
[V:2] d2c2d2A2d4 | 
[V:3] G4A8 | 
[V:4] E,4D,8 | 
[V:1] G8z4 | 
[V:2] B2e3dc2B4 | 
[V:3] G12 | 
[V:4] E,8E,4 | 
[V:1] A4G2A4c2 | 
[V:2] A2c2B2A2c3B | 
[V:3] z12 | 
[V:4] A,,4z4z4 | 
[V:1] B2A2c2BAG2A2 | 
[V:2] G2c4d2e2f2 | 
[V:3] z12 | 
[V:4] z12 | 
[V:1] B2c3BA4^G2 | 
[V:2] g2e3dc2B4 | 
[V:3] z12 | 
[V:4] z12 | 
[V:1] A8B4 | 
[V:2] z2e4f2d4 | 
[V:3] A8G4 | 
[V:4] A,,3B,,C,2D,2B,,4 | 
[V:1] c6BAG2FE | 
[V:2] c2d2e4z2A2 | 
[V:3] A6B2c4 | 
[V:4] A,,6E,4F,2 | 
[V:1] D2G2A2F3EF2 | 
[V:2] B2c2d4d2d2- | 
[V:3] B4A8 | 
[V:4] G,4D,8 | 
[V:1] G2E4A4^G2 | 
[V:2] d2c2e2f2e4 | 
[V:3] G2A2c2d2B4 | 
[V:4] z2A,4D,2E,4 | 
[V:1] A4z4A4 | 
[V:2] c2f3ed4c2 | 
[V:3] A12 | 
[V:4] F,4D,4F,4 | 
[V:1] B2G4F2E4 | 
[V:2] B2e3dd4^c2 | 
[V:3] z4z4A4 | 
[V:4] G,2C,4D,2A,,4 | 
[V:1] D2E3DD4^C2 | 
[V:2] d2B2c2A4A2 | 
[V:3] B2G4F2E4 | 
[V:4] D,2E,2C,2D,2A,,4 | 
[V:1] D2A2B2c4B2 | 
[V:2] F4z2c3de2 | 
[V:3] D2F2G2A4G2 | 
[V:4] D,4B,,2A,,2E,4 | 
[V:1] A2GFE2A4^G2 | 
[V:2] c2e4f2e4 | 
[V:3] A2B2c4B4 | 
[V:4] F,2G,2A,4E,4 | 
[V:1] A4z2E2F2G2 | 
[V:2] c4d2e2d2B2 | 
[V:3] A8z2E2 | 
[V:4] F,4D,2C,2D,2E,2 | 
[V:1] A2B2c2BAG2c2 | 
[V:2] z2G2F2G2E2e2- | 
[V:3] F2G2A2B2c2BA | 
[V:4] D,2B,,2A,,2G,,2C,3D, | 
[V:1] B2AGFEE4D2 | 
[V:2] edcBc3BAGA2 | 
[V:3] G2A4G2F4 | 
[V:4] E,2F,4C,2D,4 | 
[V:1] E12 |]  
[V:2] B12 |]  
[V:3] E12 |]  
[V:4] G,12 |]  



